!!!COM: Palestrina, Giovanni Perluigi da
!!!OPR: Sine nomine (Mantuan)
!!!OTL: Credo
**kern	**kern	**kern	**kern
*Ibass	*Itenor	*Icalto	*Icant
!Bassus	!Tenor	!Altus	!Cantus
*clefF4	*clefGv2	*clefG2	*clefG2
*k[]	*k[]	*k[]	*k[]
*G:mix	*G:mix	*G:mix	*G:mix
*M4/2	*M4/2	*M4/2	*M4/2
=1	=1	=1	=1
0C	0e	[0c	0g
=2	=2	=2	=2
0F	0f	0c]	0a
=3	=3	=3	=3
1C	1e	1c	1g
1F	1c	2A	1a
.	.	[2f	.
=4	=4	=4	=4
2D	2d	2f]	2a
2C#	1e	2e	2a
1D	.	2.f	[1a
.	[2d	.	.
.	.	4d	.
=5	=5	=5	=5
1A	2d]	1e	1a]
.	2c#	.	.
1D	1d	[1d	1f#
=6	=6	=6	=6
1G	1B	1d]	1r
1A	1c	1r	1e
=7	=7	=7	=7
2D	2d	1A	1f#
2D	2d	.	.
1G	1d	2B	2g
.	.	2B	2g
=8	=8	=8	=8
1C	2c	1c	1g
.	2.e	.	.
1D	.	2A	2f
.	4d	.	.
.	[2d	2F	[2a
=9	=9	=9	=9
1E	2d]	1G	4a]
.	.	.	4g
.	2c#	.	1g
1D	[1d	1A	.
.	.	.	2f#
=10	=10	=10	=10
1r	1d]	0G	0g
2.G	2.B	.	.
4A	4c	.	.
=11	=11	=11	=11
2B	2d	0r	0r
2B	2d	.	.
1c	1e	.	.
=12	=12	=12	=12
2B	2d	0r	0r
1A	2c	.	.
.	1B	.	.
2G#	.	.	.
=13	=13	=13	=13
1A	1A	1r	1r
1c	1r	1e	1g
=14	=14	=14	=14
1F	0r	1f	1a
1C	.	1e	1g
=15	=15	=15	=15
4D	0r	1d	1f
4E	.	.	.
4F	.	.	.
4G	.	.	.
2A	.	2c	2e
2G	.	[2e	[2g
=16	=16	=16	=16
1B-	0r	4e]	4g]
.	.	4d	4f
.	.	1d	4f
.	.	.	8e
.	.	.	8d
1A	.	.	2e
.	.	2c#	2e
=17	=17	=17	=17
2D	2r	1d	2d
1G	1B	.	1d
.	.	2G	.
2E	2c	2G	2e
=18	=18	=18	=18
2D	2d	2A	2f
2D	2d	2A	2f
2G	2d	2B	2g
2G	2d	2B	2g
=19	=19	=19	=19
1D	1d	2A	1f
.	.	1d	.
1G	1B	.	1g
.	.	[2e	.
=20	=20	=20	=20
1A	1c	4e]	2e
.	.	4d	.
.	.	1c	2f#
1G	1d	.	1g
.	.	2B	.
=21	=21	=21	=21
1C	1e	1c	1g
1C	1e	1g	2r
.	.	.	2c
=22	=22	=22	=22
2E	2e	2g	2B
2C	2e	2g	1c
1G	1d	1g	.
.	.	.	2B
=23	=23	=23	=23
1C	2c	2e	2c
.	2c	2g	2e
1r	2d	2f	2d
.	[2e	[2g	[2c
=24	=24	=24	=24
0r	2e]	4g]	2c]
.	.	4f	.
.	1d	4f	2d
.	.	8e	.
.	.	8d	.
.	.	2e	1A
.	2c#	2e	.
=25	=25	=25	=25
2r	1d	1d	2r
1G	.	.	1B
.	1r	1r	.
2A	.	.	2c
=26	=26	=26	=26
2B	0r	0r	2d
2G	.	.	2B
2A	.	.	1c
[2c	.	.	.
=27	=27	=27	=27
2c]	0r	0r	1d
2B	.	.	.
1c	.	.	1e
=28	=28	=28	=28
1C	1e	0c	1g
1F	1f	.	1a
=29	=29	=29	=29
1C	1e	1.c	1g
2.E	1e	.	[1g
.	.	4B	.
4F	.	4A	.
=30	=30	=30	=30
2G	2e	2B	2g]
2A	2e	2c	2e
1D	1d	2A	2f
.	.	2F	[2a
=31	=31	=31	=31
1E	1c	1G	4a]
.	.	.	4g
.	.	.	1g
1D	[1d	2A	.
.	.	2A	2f#
=32	=32	=32	=32
1G	0d]	0G	1g
2r	.	.	2r
2G	.	.	2g
=33	=33	=33	=33
2A	0r	0r	2e
2c	.	.	2e
2B	.	.	2d
[2d	.	.	[2f
=34	=34	=34	=34
4d]	1r	1r	4f]
4c	.	.	4e
1c	.	.	4e
.	.	.	8d
.	.	.	8c
.	2r	2r	1d
2B	2g	2G	.
=35	=35	=35	=35
1c	2e	2A	1c
.	2e	2c	.
1r	2d	2B	1r
.	[2f	[2d	.
=36	=36	=36	=36
1r	4f]	4d]	1r
.	4e	4c	.
.	4e	1c	.
.	8d	.	.
.	8c	.	.
2r	2d	.	2r
2G	2d	2B	2g
=37	=37	=37	=37
2A	1c	1c	2e
2c	.	.	2e
2B	1r	1r	2d
[2d	.	.	[2f
=38	=38	=38	=38
4d]	1r	1r	4f]
4c	.	.	4e
1c	.	.	4e
.	.	.	8d
.	.	.	8c
.	2r	2r	1d
2B	2g	2G	.
=39	=39	=39	=39
2c	2e	2A	1c
2C	2e	2c	.
2G	2d	2B	2r
2F	[2f	[2d	2a
=40	=40	=40	=40
1A	4f]	4d]	2a
.	4e	4c	.
.	2c	1c	2f
1G	1d	.	1g
.	.	2B	.
=41	=41	=41	=41
2C	1e	1c	1g
1c	.	.	.
.	2.c	1r	2.e
2A	.	.	.
.	4d	.	4f
=42	=42	=42	=42
2G	2e	0r	2g
2F	2f	.	2a
1c	1e	.	1g
=43	=43	=43	=43
2C	2c	2r	2e
1F	1c	1A	1f
2D	2d	2A	2f
=44	=44	=44	=44
2A	2c	2A	2e
2A	2c	2c	2f
2G	2d	2B	1g
2E	[2e	2B	.
=45	=45	=45	=45
1A	2e]	1c	1e
.	1c	.	.
1G	.	1d	1g
.	2B	.	.
=46	=46	=46	=46
1F	1c	1f	0a
1A	1c	1e	.
=47	=47	=47	=47
1D	1d	1f	2r
.	.	.	1a
1A	1c	2e	.
.	.	[2e	2a
=48	=48	=48	=48
2c	2e	2e]	2a
2d	2f	2d	2a
1A	2e	2c	1a
.	2c	[2e	.
=49	=49	=49	=49
1B-	1d	4e]	2f
.	.	4d	.
.	.	1d	2g
1A	1e	.	1a
.	.	2c#	.
=50	=50	=50	=50
1D	1d	1d	1f#
1G	1B	2r	1r
.	.	2G	.
=51	=51	=51	=51
2F	2c	2A	0r
2D	2d	2B	.
1C	1e	1c	.
=52	=52	=52	=52
2G	2d	2B	0r
2A	2c	1A	.
1E	1B	.	.
.	.	2G#	.
=53	=53	=53	=53
2r	1c	2A	1r
2A	.	2e	.
2G#	2B	2e	2r
2A	2c	2e	2a
=54	=54	=54	=54
1D	1d	1f	2a
.	.	.	2a
1G	1B	2d	1g
.	.	[2e	.
=55	=55	=55	=55
1A	1c	4e]	2e
.	.	4d	.
.	.	1c	2f#
1G	1d	.	1g
.	.	2B	.
=56	=56	=56	=56
0C	1e	1c	1g
.	1g	1c	1e
=57	=57	=57	=57
0r	1a	1F	1f
.	2g	2c	2e
.	[2g	2c	[2e
=58	=58	=58	=58
1r	4g]	1d	2e]
.	4f	.	.
.	4f	.	1d
.	8e	.	.
.	8d	.	.
2r	1e	1A	.
2A	.	.	2c#
=59	=59	=59	=59
1B-	1d	2r	4d
.	.	.	4e
.	.	2.d	4f
.	.	.	4g
1A	2r	.	1a
.	.	8c#	.
.	.	8B	.
.	2e	2c#	.
=60	=60	=60	=60
4D	1f	1d	2r
4E	.	.	.
4F	.	.	2.a
4G	.	.	.
1A	2e	1c	.
.	.	.	4g
.	[2e	.	4e
.	.	.	4f
=61	=61	=61	=61
2G	4e]	2B	2g
.	4d	.	.
2F	1d	2A	2.a
1E	.	2B	.
.	.	.	4g
.	2c#	4A	[2g
.	.	4G	.
=62	=62	=62	=62
0D	[0d	0A	2g]
.	.	.	4f#
.	.	.	4e
.	.	.	1f#
=63	=63	=63	=63
[0G	1d_	[0G	[0g
.	1d_	.	.
=64	=64	=64	=64
0G]	0d]	0G]	0g]
=65	=65	=65	=65
0G	0d	0B	0g
=66	=66	=66	=66
1D	1d	1A	1f
1C	1e	1c	1g
=67	=67	=67	=67
1G	1d	2B	2.g
.	.	2B	.
.	.	.	4f
1A	1c	4c	2e
.	.	4d	.
.	.	4e	2c
.	.	4f	.
=68	=68	=68	=68
1G	1B	1g	1d
1G	1B	1d	1g
=69	=69	=69	=69
1F	1c	2.f	1a
.	.	4e	.
2G	2B	2d	2g
2A	2c	[2c	2f
=70	=70	=70	=70
0G	0d	2c]	0g
.	.	4B	.
.	.	4A	.
.	.	1B	.
=71	=71	=71	=71
1C	1e	1c	1g
1C	1e	1g	2r
.	.	.	[2c
=72	=72	=72	=72
1F	1f	1a	2c]
.	.	.	2c
1C	1e	[1g	1c
=73	=73	=73	=73
1G	2d	1g]	1B
.	2.e	.	.
1D	.	1f	1A
.	4d	.	.
.	[2d	.	.
=74	=74	=74	=74
1E	2d]	1g	1G
.	4c#	.	.
.	4B	.	.
1E	2c#	1g	1G
.	2c#	.	.
=75	=75	=75	=75
0D	0d	1f#	1A
.	.	1r	2r
.	.	.	[2d
=76	=76	=76	=76
0A	0e	0a	2d]
.	.	.	4c#
.	.	.	4B
.	.	.	1c#
=77	=77	=77	=77
0D	0f	2.a	1d
.	.	4g	.
.	.	4f	[1a
.	.	4e	.
.	.	[2d	.
=78	=78	=78	=78
2.A	1e	2d]	1a]
.	.	2c	.
4G	.	.	.
2F	[1d	2A	2r
[2G	.	2B	[2g
=79	=79	=79	=79
4G]	2d]	0G	2g]
4F	.	.	.
4E	4c#	.	2g
4D	4B	.	.
1E	2c#	.	[1g
.	2c#	.	.
=80	=80	=80	=80
0D	[0d	0A	2g]
.	.	.	4f#
.	.	.	4e
.	.	.	1f#
=81	=81	=81	=81
[0G	1d_	[0B	[0g
.	1d_	.	.
=82	=82	=82	=82
0G]	0d]	0B]	0g]
*	*	*	*-
!! Crucifixus
*Ibass	*Itenor	*Icalto
!Bassus	!Tenor	!Altus
*clefF4	*clefGv2	*clefG2
*k[]	*k[]	*k[]
*G:mix	*G:mix	*G:mix
*M4/2	*M4/2	*M4/2
=83	=83	=83
0G	0d	0B
=84	=84	=84
1C	1e	1c
1G	1d	2.B
.	.	4c
=85	=85	=85
1G	1B	2d
.	.	2d
2.C	[1c	2.e
4D	.	4f
=86	=86	=86
2E	2c]	2g
2F	2A	2a
2G	2B	2g
2A	2c	[2f
=87	=87	=87
1B-	1d	4f]
.	.	4e
.	.	1d
1A	1e	.
.	.	2c#
=88	=88	=88
1A	1e	2r
.	.	2c#
2.D	[1f	4d
.	.	4e
.	.	4f
4E	.	4g
=89	=89	=89
2F	2f]	2a
2G	2e	2g
1A	1c	2e
.	.	[2f
=90	=90	=90
1B-	1d	4f]
.	.	4e
.	.	1d
1A	1e	.
.	.	2c#
=91	=91	=91
1D	1d	1d
1r	1r	1r
=92	=92	=92
1A	1e	1c#
1A	1e	1c#
=93	=93	=93
1.D	1.f	2.d
.	.	4e
.	.	2f
2E	2e	2g
=94	=94	=94
2.F	2d	1a
.	2c	.
4E	.	.
2D	2d	2f
2C	[2e	[2g
=95	=95	=95
1D	4e]	4g]
.	4d	4f
.	1d	4f
.	.	8e
.	.	8d
1A	.	1e
.	2c#	.
=96	=96	=96
1D	1d	1d
2r	2r	2r
2G	2d	2B
=97	=97	=97
1G	1d	1B
1C	1e	1c
=98	=98	=98
1G	1d	2.B
.	.	4c
2G	2B	2d
2C	2c	2e
=99	=99	=99
2G	2B	2d
2A	2c	1c
1G	1d	.
.	.	2B
=100	=100	=100
2C	2e	1c
2c	2e	.
1c	1e	1r
=101	=101	=101
2B	2d	0r
1A	2c	.
.	1B	.
2G#	.	.
=102	=102	=102
2A	2A	2r
2F	2f	2a
1F	1f	1a
=103	=103	=103
2c	2e	2g
2d	1d	2f
1A	.	1e
.	2c#	.
=104	=104	=104
1D	0d	1d
2r	.	2r
2D	.	2a
=105	=105	=105
2F	0r	2a
2G	.	2g
2A	.	2f
2B	.	2d
=106	=106	=106
2c	0r	2e
2.d	.	2.f
4c	.	4e
[2c	.	4e
.	.	8d
.	.	8c
=107	=107	=107
2c]	0r	1d
2B	.	.
1c	.	1e
=108	=108	=108
2r	1e	1g
2c	.	.
2c	2e	2g
2c	2e	2g
=109	=109	=109
1.F	2.f	2.a
.	4e	4g
.	2f	2a
2G	[2e	[2g
=110	=110	=110
1B-	4e]	4g]
.	4d	4f
.	1d	4f
.	.	8e
.	.	8d
1A	.	1e
.	2c#	.
=111	=111	=111
1D	1d	1d
1r	1r	1r
=112	=112	=112
1G	1B	1d
1C	1c	1e
=113	=113	=113
2.G	2.d	2.B
4G	4d	4B
2G	2d	2B
2F#	2d	2A
=114	=114	=114
2G	2d	2B
2F#	2d	2A
1G	1d	1B
=115	=115	=115
1C	1e	1c
2G	2d	2B
2A	2c	2A
=116	=116	=116
1E	1B	2G
.	.	1g
1A	[1c	.
.	.	2f
=117	=117	=117
1G	2c]	2e
.	2B	2.d
2.A	1c	.
.	.	4c
.	.	[2c
4G	.	.
=118	=118	=118
2F	1d	2c]
2G	.	2B
1C	1e	1c
=119	=119	=119
1c	1e	1g
1F	1f	1a
=120	=120	=120
1c	1e	1g
2B	2d	1g
[2c	[2e	.
=121	=121	=121
4c]	4e]	2.g
4B	4d	.
2G	1d	.
.	.	4f
2A	.	2e
2A	2c#	2e
=122	=122	=122
1D	1d	1d
1G	1B	1d
=123	=123	=123
1E	1c	1e
1D	1d	1f
=124	=124	=124
1G	2d	2g
.	2B	2d
2r	2c	2e
2C	[2e	[2g
=125	=125	=125
2D	4e]	4g]
.	4d	4f
2D	1d	4f
.	.	8e
.	.	8d
1A	.	1e
.	2c#	.
=126	=126	=126
1D	1d	1d
1G	1B	1d
=127	=127	=127
1E	1c	1e
1D	1d	1f
=128	=128	=128
1G	2d	1g
.	2B	.
2r	2c	1e
2C	[2e	.
=129	=129	=129
2D	4e]	2f
.	4d	.
2F	2d	2.a
1E	4c	.
.	4B	4g
.	4A	[2g
.	4G	.
=130	=130	=130
1D	1A	2g]
.	.	2f#
2.E	2G	2.g
.	2c	.
4F	.	4f
=131	=131	=131
1G	2c	2e
.	2B	2d
1C	1c	1e
=132	=132	=132
[0G	[0B	[0d
=133	=133	=133
0G]	0B]	0d]
*-	*-	*-
!! Et in Spiritum
**kern	**kern	**kern	**kern
*Ibass	*Itenor	*Icalto	*Icant
!Bassus	!Tenor	!Altus	!Cantus
*clefF4	*clefGv2	*clefG2	*clefG2
*k[]	*k[]	*k[]	*k[]
*G:mix	*G:mix	*G:mix	*G:mix
*M4/2	*M4/2	*M4/2	*M4/2
=134	=134	=134	=134
0G	0B	1r	0d
.	.	[1G	.
=135	=135	=135	=135
1E	1c	2G]	1e
.	.	2G	.
2.D	2.d	2A	2.f#
.	.	2A	.
4D	4d	.	4f#
=136	=136	=136	=136
2G	2d	2B	2g
1G	1d	1B	1g
2C	2e	2c	2g
=137	=137	=137	=137
2G	2d	2B	2g
2A	2c	2c	2f#
1G	1B	1d	1g
=138	=138	=138	=138
1C	1e	1c	1g
1F	1f	1c	1a
=139	=139	=139	=139
1C	2e	2.c	1g
.	2.e	.	.
.	.	4B	.
1D	.	2A	2f
.	4d	.	.
.	[2d	2F	[2a
=140	=140	=140	=140
1E	2d]	1G	4a]
.	.	.	4g
.	2c#	.	1g
1D	[1d	1A	.
.	.	.	2f#
=141	=141	=141	=141
2r	1d]	2G	1g
2G	.	2g	.
2A	1r	2f	1r
[2c	.	[2e	.
=142	=142	=142	=142
2c]	0r	2e]	0r
2B	.	2d	.
2A	.	2c	.
2G	.	2B	.
=143	=143	=143	=143
2F	0r	2A	0r
2E	.	2c	.
2D	.	2d	.
2C	.	[2e	.
=144	=144	=144	=144
1F	0r	4e]	2r
.	.	4d	.
.	.	1d	2d
1E	.	.	2e
.	.	2c	[2g
=145	=145	=145	=145
1D	2r	1d	2g]
.	2d	.	2f#
1r	2e	1r	2.g
.	[2g	.	.
.	.	.	4f
=146	=146	=146	=146
0r	2g]	0r	2e
.	2f#	.	2d
.	2.g	.	2.e
.	4f	.	4d
=147	=147	=147	=147
0r	2e	0r	2c
.	2d	.	2B
.	2e	.	2c
.	[2f	.	[2d
=148	=148	=148	=148
1r	4f]	1r	4d]
.	4e	.	4c
.	4e	.	1c
.	8d	.	.
.	8c	.	.
2r	1d	2r	.
2G	.	2g	2B
=149	=149	=149	=149
2A	1c	2f	1c
1c	.	1e	.
.	1r	.	1r
2B	.	2d	.
=150	=150	=150	=150
2A	1r	2c	1r
2G	.	2B	.
2F	2r	1c	2r
2E	2G	.	2g
=151	=151	=151	=151
2D	2A	0r	2f
4C	1c	.	1e
4D	.	.	.
4E	.	.	.
4F	.	.	.
2G	2B	.	2d
=152	=152	=152	=152
2C	2e	0r	2c
2G	2.d	.	2B
1A	.	.	1c
.	4c	.	.
.	[2c	.	.
=153	=153	=153	=153
1G	2c]	0r	1d
.	2B	.	.
1C	1c	.	1e
=154	=154	=154	=154
1G	2r	1d	2r
.	1B	.	1g
1E	.	1G	.
.	2c	.	2g
=155	=155	=155	=155
2D	2.d	2A	2f#
2D	.	2A	2f#
.	4d	.	.
1G	2d	1B	1g
.	2d	.	.
=156	=156	=156	=156
1A	2c	1c	2.e
.	2.e	.	.
.	.	.	4f#
2G	.	2B	2g
.	4d	.	.
2F	[2d	2A	[2a
=157	=157	=157	=157
1E	2d]	2B	4a]
.	.	.	4g
.	2c#	2G	1g
1D	[1d	1A	.
.	.	.	2f#
=158	=158	=158	=158
1G	0d]	1G	1g
2r	.	2r	2r
2G	.	2d	2g
=159	=159	=159	=159
2c	0r	2e	2g
2B	.	2d	2g
1c	.	1e	1g
=160	=160	=160	=160
2.A	0r	2.c	2.f
4G	.	4B	4e
2F	.	2A	2d
2E	.	2G	2c
=161	=161	=161	=161
1D	1r	1A	1d
1C	1c	1e	1g
=162	=162	=162	=162
2G	2B	2d	2g
2C	2c	2c	2g
2G	2d	2c	2g
2G	2d	2B	2g
=163	=163	=163	=163
1C	2e	2c	2g
.	1e	2.g	2c
1r	.	.	1d
.	.	4f	.
.	[2d	2f	.
=164	=164	=164	=164
0r	2d]	2e	1A
.	2c#	2e	.
.	[1d	1d	1d
=165	=165	=165	=165
1D	1d]	0r	2r
.	.	.	2d
2F	1r	.	2d
2G	.	.	2d
=166	=166	=166	=166
2A	0r	0r	2c
2F	.	.	2d
2G	.	.	2e
[2A	.	.	[2f
=167	=167	=167	=167
4A]	0r	0r	4f]
4G	.	.	4e
2E	.	.	1e
1F	.	.	.
.	.	.	2d
=168	=168	=168	=168
2E	2r	2r	2e
1C	1c	1e	1g
2C	2c	2e	2g
=169	=169	=169	=169
2G	2B	2d	2g
2F	2c	2f	2a
1B-	1d	2f	2f
.	.	4e	2g
.	.	4d	.
=170	=170	=170	=170
1A	1e	2.c	1a
.	.	4d	.
2.A	2c	2e	2r
.	[2e	2c	[2a
4G	.	.	.
=171	=171	=171	=171
2F	2e]	2f	2a]
2D	1d	2f	2a
1A	.	1e	1a
.	2c#	.	.
=172	=172	=172	=172
1D	1d	1d	1f#
1r	1r	1r	1r
=173	=173	=173	=173
0G	0d	0B	0g
=174	=174	=174	=174
1C	1e	1c	1g
1D	1d	1A	1f
=175	=175	=175	=175
1E	1B	2G	1e
.	.	1g	.
2.C	2.c	.	2.e
.	.	2g	.
4C	4c	.	4e
=176	=176	=176	=176
2G	2B	2g	2d
2E	2c	2g	2G
1D	1d	2.f	2A
.	.	.	2B
.	.	4g	.
=177	=177	=177	=177
1C	1e	2a	2.c
.	.	2.g	.
.	.	.	4d
1C	1c	.	2e
.	.	4f	.
.	.	4e	[2g
.	.	4d	.
=178	=178	=178	=178
1C	1e	2.c	2g]
.	.	.	2g
.	.	4B	.
1D	1d	2A	2f
.	.	2F	[2a
=179	=179	=179	=179
1E	1c#	1G	4a]
.	.	.	4g
.	.	.	1g
1D	1d	1A	.
.	.	.	2f#
=180	=180	=180	=180
2r	2r	2G	1g
2G	2d	2B	.
1G	1d	1B	2r
.	.	.	2g
=181	=181	=181	=181
1E	1e	1B	1g
1F	1c	1A	2f
.	.	.	[2a
=182	=182	=182	=182
1G	1B	1d	2a]
.	.	.	2.g
1D	1A	2d	.
.	.	.	4f
.	.	[2d	4f
.	.	.	8e
.	.	.	8d
=183	=183	=183	=183
0A	1A	2d]	1.e
.	.	4c#	.
.	.	4B	.
.	1e	4c#	.
.	.	4d	.
.	.	4e	2A
.	.	4c#	.
=184	=184	=184	=184
1.D	1.f	1.d	1A
.	.	.	[1a
2A	2e	2c	.
=185	=185	=185	=185
1A	1e	0c	2a]
.	.	.	2a
2r	1e	.	1a
[2c	.	.	.
=186	=186	=186	=186
2c]	1d	1G	2r
2B	.	.	1g
1A	1c	2r	.
.	.	[2c	2f#
=187	=187	=187	=187
1G	1d	2c]	1g
.	.	2B	.
2r	1e	2A	4c
.	.	.	4d
[2c	.	2c	4e
.	.	.	4f
=188	=188	=188	=188
2c]	1d	2G	2g
2B	.	1g	2d
1A	1c	.	2e
.	.	2f	4c
.	.	.	4d
=189	=189	=189	=189
1G	1B	2e	4e
.	.	.	4f
.	.	4d	1g
.	.	4c	.
1D	1A	2d	.
.	.	[2d	2f#
=190	=190	=190	=190
2.G	0B	4d]	0g
.	.	4c	.
.	.	4B	.
4F	.	4A	.
2.E	.	2G	.
.	.	[2g	.
4D	.	.	.
=191	=191	=191	=191
0C	0c	4g]	0g
.	.	4f	.
.	.	4e	.
.	.	4d	.
.	.	1e	.
=192	=192	=192	=192
[0G	[0B	[0d	[0g
=193	=193	=193	=193
0G]	0B]	0d]	0g]
==	==	==	==
*-	*-	*-	*-
!!!CDT: 1525/^1526/-1594/2/2
!!!OCY: Italia
!!!AGN: Mass (Free)
!!!AST: renaissance, vocal
!!!ASW: Motet (Maffoni)
!!!PWK: Masses, Book Mantuan II
!!!RNB: Cadence finals: C
!!!YOR: Le Opere Complete, v. 19, p. 168
!!!YOO: Rome, Italy: Fratelli Scalera
!!!END: 1992//
!!!EED: John Miller
!!!YEC: Copyright 2000, John Miller
!!!YEN: United States of America
!!!YEM: Rights to all derivative electronic formats reserved.
!!!YEM: Refer to licensing agreement for further details.
!!!YEM: This file must be accompanied by the licensing agreement.
!!!YEM: A copy of the licensing agreement may be found at http://www.music-cog.ohio-state.edu/HumdrumDatabases/Palestrina/license.txt
!!!EMD: converted to Humdrum by Bret Aarden
